public/assets/avax-full.svg

<svg fill="none" xmlns="http://www.w3.org/2000/svg" viewBox="0 0 3194 647"><path d="M863.927 210.703h34.722l97.158 225.535h-45.871l-21.025-51.606h-97.795l-20.388 51.606h-44.916l98.115-225.535Zm50.968 139.526-34.722-91.743-35.36 91.743h70.082ZM1038.86 210.703h46.19l61.48 170.425 63.39-170.425h43.33l-91.11 225.535h-34.72l-88.56-225.535ZM1396.69 210.703h34.73l97.15 225.535h-45.87l-21.02-51.606h-97.8l-20.39 51.606h-44.91l98.11-225.535Zm50.97 139.526-34.72-91.743-35.36 91.743h70.08ZM1617.35 210.703h40.14v189.22h95.88v36.315h-136.02V210.703ZM1919.19 210.703h34.73l97.15 225.535h-45.87l-21.02-51.606h-97.8l-20.39 51.606h-44.91l98.11-225.535Zm50.97 139.526-34.72-91.743-35.36 91.743h70.08ZM2139.85 210.703h53.2l109.26 167.558h.64V210.703h40.13v225.535h-50.96l-111.5-172.974h-.63v172.974h-40.14V210.703ZM2611.91 263.582c-8.28-8.919-16.35-14.865-24.21-17.839-7.65-2.973-15.4-4.459-23.25-4.459-11.68 0-22.3 2.123-31.86 6.371-9.34 4.035-17.41 9.769-24.21 17.202-6.8 7.22-12.1 15.715-15.93 25.484-3.61 9.769-5.41 20.281-5.41 31.536 0 12.105 1.8 23.255 5.41 33.448 3.83 10.194 9.13 19.007 15.93 26.44 6.8 7.433 14.87 13.273 24.21 17.521 9.56 4.247 20.18 6.371 31.86 6.371 9.13 0 17.94-2.124 26.44-6.371 8.7-4.46 16.77-11.468 24.21-21.025l33.12 23.573c-10.19 14.016-22.61 24.21-37.27 30.581-14.65 6.371-30.26 9.557-46.82 9.557-17.42 0-33.45-2.761-48.1-8.283-14.45-5.734-26.98-13.697-37.59-23.891-10.41-10.406-18.59-22.83-24.53-37.271-5.95-14.441-8.92-30.475-8.92-48.101 0-18.051 2.97-34.404 8.92-49.057 5.94-14.866 14.12-27.502 24.53-37.908 10.61-10.406 23.14-18.37 37.59-23.891 14.65-5.734 30.68-8.601 48.1-8.601 15.29 0 29.41 2.761 42.36 8.282 13.17 5.309 25.38 14.441 36.64 27.396l-31.22 22.935ZM2738.88 210.703h40.13v89.831h105.44v-89.831h40.14v225.535h-40.14v-99.389h-105.44v99.389h-40.13V210.703ZM3038.7 210.703h149.4v36.315h-109.26v55.428h103.53v36.315h-103.53v61.162h115v36.315H3038.7V210.703Z" fill="#E84142"/><circle cx="323.5" cy="323.5" r="253.5" fill="#fff"/><path fill-rule="evenodd" clip-rule="evenodd" d="M647 323.5C647 502.164 502.164 647 323.5 647S0 502.164 0 323.5 144.836 0 323.5 0 647 144.836 647 323.5ZM231.83 452.23h-62.782c-13.192 0-19.709 0-23.683-2.543-4.291-2.782-6.914-7.391-7.232-12.477-.238-4.689 3.02-10.411 9.537-21.855l155.017-273.239c6.596-11.603 9.934-17.404 14.146-19.55a15.998 15.998 0 0 1 14.464 0c4.212 2.146 7.55 7.947 14.146 19.55l31.868 55.63.163.284c7.124 12.448 10.737 18.76 12.314 25.385a47.194 47.194 0 0 1 0 22.093c-1.589 6.676-5.166 13.034-12.398 25.67l-81.426 143.939-.211.369c-7.172 12.55-10.806 18.91-15.843 23.711a47.363 47.363 0 0 1-19.311 11.205c-6.596 1.828-13.987 1.828-28.769 1.828Zm158.546.007h89.962c13.272 0 19.947 0 23.921-2.622 4.291-2.782 6.993-7.471 7.232-12.557.23-4.534-2.958-10.035-9.205-20.813l-.65-1.121-45.06-77.087-.513-.867c-6.332-10.709-9.53-16.116-13.633-18.206a15.825 15.825 0 0 0-14.384 0c-4.133 2.145-7.471 7.788-14.067 19.152l-44.901 77.087-.154.266c-6.573 11.346-9.858 17.016-9.621 21.669.318 5.086 2.94 9.775 7.232 12.556 3.894 2.543 10.569 2.543 23.841 2.543Z" fill="#E84142"/></svg>

<svg width="3194" height="647" viewBox="0 0 3194 647" fill="none" xmlns="http://www.w3.org/2000/svg">
<path d="M863.927 210.703H898.649L995.807 436.238H949.936L928.911 384.632H831.116L810.728 436.238H765.812L863.927 210.703ZM914.895 350.229L880.173 258.486L844.813 350.229H914.895Z" fill="#E84142"/>
<path d="M1038.86 210.703H1085.05L1146.53 381.128L1209.92 210.703H1253.25L1162.14 436.238H1127.42L1038.86 210.703Z" fill="#E84142"/>
<path d="M1396.69 210.703H1431.42L1528.57 436.238H1482.7L1461.68 384.632H1363.88L1343.49 436.238H1298.58L1396.69 210.703ZM1447.66 350.229L1412.94 258.486L1377.58 350.229H1447.66Z" fill="#E84142"/>
<path d="M1617.35 210.703H1657.49V399.923H1753.37V436.238H1617.35V210.703Z" fill="#E84142"/>
<path d="M1919.19 210.703H1953.92L2051.07 436.238H2005.2L1984.18 384.632H1886.38L1865.99 436.238H1821.08L1919.19 210.703ZM1970.16 350.229L1935.44 258.486L1900.08 350.229H1970.16Z" fill="#E84142"/>
<path d="M2139.85 210.703H2193.05L2302.31 378.261H2302.95V210.703H2343.08V436.238H2292.12L2180.62 263.264H2179.99V436.238H2139.85V210.703Z" fill="#E84142"/>
<path d="M2611.91 263.582C2603.63 254.663 2595.56 248.717 2587.7 245.743C2580.05 242.77 2572.3 241.284 2564.45 241.284C2552.77 241.284 2542.15 243.407 2532.59 247.655C2523.25 251.69 2515.18 257.424 2508.38 264.857C2501.58 272.077 2496.28 280.572 2492.45 290.341C2488.84 300.11 2487.04 310.622 2487.04 321.877C2487.04 333.982 2488.84 345.132 2492.45 355.325C2496.28 365.519 2501.58 374.332 2508.38 381.765C2515.18 389.198 2523.25 395.038 2532.59 399.286C2542.15 403.533 2552.77 405.657 2564.45 405.657C2573.58 405.657 2582.39 403.533 2590.89 399.286C2599.59 394.826 2607.66 387.818 2615.1 378.261L2648.22 401.834C2638.03 415.85 2625.61 426.044 2610.95 432.415C2596.3 438.786 2580.69 441.972 2564.13 441.972C2546.71 441.972 2530.68 439.211 2516.03 433.689C2501.58 427.955 2489.05 419.992 2478.44 409.798C2468.03 399.392 2459.85 386.968 2453.91 372.527C2447.96 358.086 2444.99 342.052 2444.99 324.426C2444.99 306.375 2447.96 290.022 2453.91 275.369C2459.85 260.503 2468.03 247.867 2478.44 237.461C2489.05 227.055 2501.58 219.091 2516.03 213.57C2530.68 207.836 2546.71 204.969 2564.13 204.969C2579.42 204.969 2593.54 207.73 2606.49 213.251C2619.66 218.56 2631.87 227.692 2643.13 240.647L2611.91 263.582Z" fill="#E84142"/>
<path d="M2738.88 210.703H2779.01V300.534H2884.45V210.703H2924.59V436.238H2884.45V336.849H2779.01V436.238H2738.88V210.703Z" fill="#E84142"/>
<path d="M3038.7 210.703H3188.1V247.018H3078.84V302.446H3182.37V338.761H3078.84V399.923H3193.84V436.238H3038.7V210.703Z" fill="#E84142"/>
<circle cx="323.5" cy="323.5" r="253.5" fill="white"/>
<path fill-rule="evenodd" clip-rule="evenodd" d="M647 323.5C647 502.164 502.164 647 323.5 647C144.836 647 0 502.164 0 323.5C0 144.836 144.836 0 323.5 0C502.164 0 647 144.836 647 323.5ZM231.83 452.23H169.048C155.856 452.23 149.339 452.23 145.365 449.687C141.074 446.905 138.451 442.296 138.133 437.21C137.895 432.521 141.153 426.799 147.67 415.355L302.687 142.116C309.283 130.513 312.621 124.712 316.833 122.566C321.363 120.262 326.767 120.262 331.297 122.566C335.509 124.712 338.847 130.513 345.443 142.116L377.311 197.746L377.474 198.03L377.474 198.03C384.598 210.478 388.211 216.79 389.788 223.415C391.536 230.647 391.536 238.276 389.788 245.508C388.199 252.184 384.622 258.542 377.39 271.178L295.964 415.117L295.753 415.486C288.581 428.036 284.947 434.396 279.91 439.197C274.427 444.442 267.831 448.256 260.599 450.402C254.003 452.23 246.612 452.23 231.83 452.23ZM390.376 452.237H480.338H480.338C493.61 452.237 500.285 452.237 504.259 449.615C508.55 446.833 511.252 442.144 511.491 437.058C511.721 432.524 508.533 427.023 502.286 416.245C502.073 415.877 501.856 415.504 501.636 415.124L456.576 338.037L456.063 337.17C449.731 326.461 446.533 321.054 442.43 318.964C437.9 316.659 432.576 316.659 428.046 318.964C423.913 321.109 420.575 326.752 413.979 338.116L369.078 415.203L368.924 415.469C362.351 426.815 359.066 432.485 359.303 437.138C359.621 442.224 362.243 446.913 366.535 449.694C370.429 452.237 377.104 452.237 390.376 452.237Z" fill="#E84142"/>
</svg>
